assets/static/svgs/logos/logo-moneyball.svg

<svg width="1em" height="auto"  viewBox="0 0 201 33" fill="none" xmlns="http://www.w3.org/2000/svg">
<symbol id="item"
width="1em"
height="auto"
viewBox="0 0 201 33"
fill="none"
>
 <path fill-rule="evenodd" clip-rule="evenodd" d="M31.6677 13.0933C32.9187 10.8987 32.7113 8.19895 31.1398 6.22119L26.1564 0L15.0582 19.4302C13.8072 21.6248 14.0146 24.3245 15.5861 26.3023L20.5695 32.5235L31.6677 13.0933ZM13.3744 7.95624C14.8798 9.87735 15.0872 12.5771 13.8929 14.7056L5.05579 30.6292L1.28991 25.7958C-0.215506 23.8747 -0.422898 21.1749 0.771427 19.0464L9.60851 3.12279L13.3744 7.95624ZM39.3069 21.045C40.5985 22.7157 40.6287 24.966 39.3825 26.6708L35.7996 32.1633L32.5704 27.961C31.2789 26.2903 31.2486 24.0399 32.4948 22.3351L36.0778 16.8426L39.3069 21.045Z" fill="#FBE25C"/> <path fill-rule="evenodd" clip-rule="evenodd" d="M153.48 25.0694V2.66943H157.542V11.1617C158.773 9.56174 160.557 8.76174 162.773 8.76174C164.988 8.76174 166.773 9.5002 168.188 11.0387C169.603 12.5156 170.342 14.5464 170.342 17.131C170.342 19.7156 169.603 21.7464 168.126 23.2233C166.649 24.7617 164.865 25.5002 162.711 25.5002C160.434 25.5002 158.711 24.7002 157.542 23.1002V25.0694H153.48ZM158.526 20.4541C159.388 21.3156 160.434 21.7464 161.788 21.7464C163.08 21.7464 164.126 21.3156 164.988 20.4541C165.849 19.5925 166.28 18.4848 166.28 17.131C166.28 15.7771 165.849 14.6694 164.988 13.8079C164.126 12.9464 163.08 12.5156 161.788 12.5156C160.496 12.5156 159.388 12.9464 158.526 13.8079C157.665 14.6694 157.296 15.7771 157.296 17.131C157.296 18.4848 157.726 19.5925 158.526 20.4541ZM80.8648 13.9926V25.0695H76.8033V15.2233C76.8033 13.2541 75.9418 12.2695 74.2802 12.2695C73.3572 12.2695 72.6187 12.6387 72.0648 13.3156C71.511 13.9926 71.2033 14.9772 71.2033 16.2695V25.0695H67.1418V15.2849C67.1418 13.2541 66.2802 12.2695 64.5572 12.2695C63.6956 12.2695 63.0187 12.6387 62.4033 13.3156C61.8495 13.9926 61.5418 14.9772 61.5418 16.1464V25.0695H57.4802V9.19256H61.5418V11.2849C62.6495 9.56179 64.1879 8.70025 66.1572 8.70025C68.3725 8.70025 69.8495 9.62333 70.5879 11.4079C71.6956 9.62333 73.4187 8.70025 75.6341 8.70025C77.2341 8.70025 78.5264 9.19256 79.3879 10.1156C80.4341 11.1003 80.8648 12.3926 80.8648 13.9926ZM97.6033 10.9772C99.3264 12.4541 100.188 14.4849 100.188 17.131C100.188 19.7772 99.3264 21.8079 97.6033 23.2849C95.8803 24.7618 93.8495 25.5002 91.511 25.5002C89.1726 25.5002 87.1418 24.7618 85.4187 23.2849C83.6956 21.8079 82.8341 19.7156 82.8341 17.131C82.8341 14.5464 83.6956 12.4541 85.4187 10.9772C87.1418 9.50025 89.1726 8.76179 91.511 8.76179C93.8495 8.76179 95.8803 9.50025 97.6033 10.9772ZM88.2495 20.5156C89.1726 21.3772 90.2187 21.7464 91.511 21.7464C92.7418 21.7464 93.7879 21.3156 94.711 20.5156C95.6341 19.6541 96.0649 18.5464 96.0649 17.131C96.0649 15.7156 95.6341 14.6079 94.711 13.8079C93.7879 12.9464 92.7418 12.5156 91.511 12.5156C90.2803 12.5156 89.1726 12.9464 88.2495 13.8079C87.3264 14.6695 86.8956 15.7772 86.8956 17.131C86.8956 18.5464 87.388 19.6541 88.2495 20.5156ZM117.357 25.0695V14.2387C117.357 12.5772 116.803 11.2849 115.757 10.2387C114.711 9.25409 113.357 8.76179 111.696 8.76179C109.419 8.76179 107.634 9.7464 106.342 11.7772V9.19256H102.28V25.0695H106.342V17.0079C106.342 15.6541 106.711 14.6079 107.388 13.7464C108.065 12.9464 108.988 12.5156 110.034 12.5156C112.188 12.5156 113.296 13.6233 113.296 15.9002V25.0695H117.357ZM135.326 18.1156H123.142C123.265 19.3464 123.757 20.331 124.496 21.0079C125.296 21.6849 126.28 22.0541 127.45 22.0541C129.419 22.0541 130.896 21.0695 131.819 19.1618L134.834 20.8849C133.357 23.9618 130.834 25.5002 127.388 25.5002C125.111 25.5002 123.203 24.7003 121.603 23.1618C120.003 21.5618 119.265 19.5926 119.265 17.131C119.265 14.6695 120.065 12.6387 121.665 11.1002C123.265 9.56179 125.296 8.76179 127.634 8.76179C129.911 8.76179 131.757 9.50025 133.173 10.9772C134.65 12.4541 135.326 14.3618 135.326 16.7002V18.1156ZM127.511 11.8387C126.465 11.8387 125.542 12.1464 124.742 12.8233C124.003 13.4387 123.45 14.2387 123.142 15.1618H131.634C131.45 14.1156 130.957 13.3156 130.28 12.7002C129.542 12.1464 128.619 11.8387 127.511 11.8387ZM137.911 27.7157L137.296 31.4695C137.911 31.7157 138.649 31.8387 139.388 31.8387C140.619 31.8387 141.665 31.5311 142.526 30.9157C143.388 30.3003 144.065 29.3157 144.619 27.9618L152.188 9.19259H147.634L143.757 19.4695L139.634 9.19259H135.08L141.603 25.1926L141.111 26.608C140.742 27.5926 140.188 28.0849 139.326 28.0849C138.834 28.0849 138.403 27.9618 137.911 27.7157ZM183.203 25.0694H187.326C186.65 24.0232 186.28 22.7309 186.28 21.0078V14.3617C186.28 12.454 185.665 11.0386 184.496 10.054C183.326 9.13091 181.603 8.6386 179.326 8.6386C177.296 8.6386 175.696 9.13091 174.465 10.1155C173.234 11.0386 172.619 12.2078 172.619 13.5001C172.619 13.9924 172.742 14.4232 172.926 14.854L176.557 13.6232C176.496 13.5001 176.496 13.3771 176.496 13.254C176.496 12.7001 176.742 12.3309 177.234 11.9617C177.726 11.654 178.403 11.4694 179.326 11.4694C181.234 11.4694 182.219 12.2694 182.219 13.8694V14.4848L177.48 15.2232C175.819 15.5309 174.403 16.0848 173.357 16.9463C172.311 17.8078 171.819 18.9771 171.819 20.5155C171.819 22.054 172.311 23.2232 173.296 24.1463C174.28 25.0694 175.573 25.5001 177.173 25.5001C179.573 25.5001 181.357 24.5155 182.465 22.5463C182.465 23.5925 182.711 24.454 183.203 25.0694ZM181.05 21.0694C180.311 21.8694 179.326 22.2386 178.096 22.2386C177.419 22.2386 176.803 22.1155 176.373 21.6848C175.942 21.3771 175.757 20.8848 175.757 20.2694C175.757 19.0386 176.619 18.2386 178.403 17.9309L182.219 17.3155V17.6232C182.219 19.1001 181.788 20.2694 181.05 21.0694ZM189.173 25.0694V2.66943H193.234V25.0694H189.173ZM196.311 2.66943V25.0694H200.373V2.66943H196.311Z" fill="currentColor"/> 
</symbol>
</svg>

<svg width="1em" height="auto"    viewBox="0 0 201 33" fill="none" xmlns="http://www.w3.org/2000/svg">
<symbol id="item"
width="1em"
height="auto"
viewBox="0 0 201 33"
fill="none"
>
<path fill-rule="evenodd" clip-rule="evenodd" d="M31.668 13.093a6.125 6.125 0 0 0-.528-6.872L26.156 0 15.058 19.43a6.125 6.125 0 0 0 .528 6.872l4.984 6.221 11.098-19.43ZM13.374 7.956a6.149 6.149 0 0 1 .519 6.75L5.056 30.629 1.29 25.796a6.149 6.149 0 0 1-.519-6.75L9.61 3.123l3.765 4.833Zm25.933 13.089a4.633 4.633 0 0 1 .075 5.626L35.8 32.163l-3.23-4.202a4.634 4.634 0 0 1-.075-5.626l3.583-5.492 3.229 4.202Z" fill="#FBE25C"/><path fill-rule="evenodd" clip-rule="evenodd" d="M153.48 25.07V2.67h4.062v8.492c1.231-1.6 3.015-2.4 5.231-2.4 2.215 0 4 .738 5.415 2.277 1.415 1.477 2.154 3.507 2.154 6.092 0 2.585-.739 4.615-2.216 6.092-1.477 1.539-3.261 2.277-5.415 2.277-2.277 0-4-.8-5.169-2.4v1.97h-4.062Zm5.046-4.616c.862.862 1.908 1.292 3.262 1.292 1.292 0 2.338-.43 3.2-1.292.861-.861 1.292-1.97 1.292-3.323 0-1.354-.431-2.462-1.292-3.323-.862-.862-1.908-1.292-3.2-1.292-1.292 0-2.4.43-3.262 1.292-.861.861-1.23 1.97-1.23 3.323 0 1.354.43 2.462 1.23 3.323Zm-77.661-6.461V25.07h-4.062v-9.847c0-1.969-.861-2.954-2.523-2.954-.923 0-1.661.37-2.215 1.047-.554.677-.862 1.661-.862 2.954v8.8h-4.061v-9.785c0-2.03-.862-3.015-2.585-3.015-.861 0-1.538.369-2.154 1.046-.553.677-.861 1.661-.861 2.83v8.924H57.48V9.193h4.062v2.092C62.65 9.562 64.188 8.7 66.157 8.7c2.216 0 3.693.923 4.43 2.708C71.697 9.623 73.42 8.7 75.635 8.7c1.6 0 2.892.493 3.754 1.416 1.046.984 1.477 2.277 1.477 3.877Zm16.738-3.016c1.723 1.477 2.585 3.508 2.585 6.154s-.862 4.677-2.585 6.154C95.88 24.762 93.85 25.5 91.511 25.5c-2.338 0-4.37-.738-6.092-2.215-1.723-1.477-2.585-3.57-2.585-6.154 0-2.585.862-4.677 2.585-6.154 1.723-1.477 3.754-2.215 6.092-2.215 2.339 0 4.37.738 6.092 2.215Zm-9.353 9.539c.923.861 1.969 1.23 3.261 1.23 1.23 0 2.277-.43 3.2-1.23.923-.862 1.354-1.97 1.354-3.385 0-1.415-.43-2.523-1.354-3.323-.923-.862-1.97-1.292-3.2-1.292-1.23 0-2.338.43-3.261 1.292-.924.861-1.354 1.97-1.354 3.323 0 1.415.492 2.523 1.353 3.385Zm29.107 4.554V14.239c0-1.662-.554-2.954-1.6-4-1.046-.985-2.4-1.477-4.061-1.477-2.277 0-4.062.984-5.354 3.015V9.193h-4.062V25.07h4.062v-8.062c0-1.354.369-2.4 1.046-3.262.677-.8 1.6-1.23 2.646-1.23 2.154 0 3.262 1.107 3.262 3.384v9.17h4.061Zm17.969-6.954h-12.184c.123 1.23.615 2.215 1.354 2.892.8.677 1.784 1.046 2.954 1.046 1.969 0 3.446-.984 4.369-2.892l3.015 1.723c-1.477 3.077-4 4.615-7.446 4.615-2.277 0-4.185-.8-5.785-2.338-1.6-1.6-2.338-3.57-2.338-6.031 0-2.462.8-4.492 2.4-6.03 1.6-1.54 3.631-2.34 5.969-2.34 2.277 0 4.123.74 5.539 2.216 1.477 1.477 2.153 3.385 2.153 5.723v1.416Zm-7.815-6.277c-1.046 0-1.969.307-2.769.984a5.154 5.154 0 0 0-1.6 2.339h8.492a4.228 4.228 0 0 0-1.354-2.462c-.738-.554-1.661-.861-2.769-.861Zm10.4 15.877-.615 3.753c.615.247 1.353.37 2.092.37 1.231 0 2.277-.308 3.138-.923.862-.616 1.539-1.6 2.093-2.954l7.569-18.77h-4.554l-3.877 10.277-4.123-10.276h-4.554l6.523 16-.492 1.415c-.369.985-.923 1.477-1.785 1.477-.492 0-.923-.123-1.415-.37Zm45.292-2.647h4.123c-.676-1.046-1.046-2.338-1.046-4.061v-6.646c0-1.908-.615-3.323-1.784-4.308-1.17-.923-2.893-1.415-5.17-1.415-2.03 0-3.63.492-4.861 1.477-1.231.923-1.846 2.092-1.846 3.384 0 .492.123.923.307 1.354l3.631-1.23c-.061-.124-.061-.247-.061-.37 0-.554.246-.923.738-1.292.492-.308 1.169-.493 2.092-.493 1.908 0 2.893.8 2.893 2.4v.616l-4.739.738c-1.661.308-3.077.862-4.123 1.723-1.046.862-1.538 2.031-1.538 3.57 0 1.538.492 2.707 1.477 3.63.984.923 2.277 1.354 3.877 1.354 2.4 0 4.184-.985 5.292-2.954 0 1.047.246 1.908.738 2.523Zm-2.153-4c-.739.8-1.724 1.17-2.954 1.17-.677 0-1.293-.123-1.723-.554-.431-.308-.616-.8-.616-1.416 0-1.23.862-2.03 2.646-2.338l3.816-.616v.308c0 1.477-.431 2.646-1.169 3.446Zm8.123 4V2.67h4.061v22.4h-4.061Zm7.138-22.4v22.4h4.062V2.67h-4.062Z" fill="currentColor"/>
</symbol>
</svg>
